assets/icons/microphone/low-filled.svg

<?xml version="1.0" encoding="UTF-8" standalone="no"?>
<svg viewBox="0 1 24 24" height="24" width="24" version="1.1" id="svg10" sodipodi:docname="low-filled.svg" inkscape:version="1.1 (ce6663b3b7, 2021-05-25)"
   xmlns:inkscape="http://www.inkscape.org/namespaces/inkscape"
   xmlns:sodipodi="http://sodipodi.sourceforge.net/DTD/sodipodi-0.dtd"
   xmlns="http://www.w3.org/2000/svg"
   xmlns:svg="http://www.w3.org/2000/svg">
   <defs id="defs14" />
   <sodipodi:namedview id="namedview12" pagecolor="#ffffff" bordercolor="#666666" borderopacity="1.0" inkscape:pageshadow="2" inkscape:pageopacity="0.0" inkscape:pagecheckerboard="0" showgrid="true" inkscape:zoom="28" inkscape:cx="4.9464285" inkscape:cy="7.8035714" inkscape:window-width="1920" inkscape:window-height="1016" inkscape:window-x="0" inkscape:window-y="27" inkscape:window-maximized="1" inkscape:current-layer="svg10">
      <inkscape:grid type="xygrid" id="grid912" />
      <inkscape:grid type="xygrid" id="grid914" dotted="true" spacingx="0.5" spacingy="0.5" empspacing="10" />
   </sodipodi:namedview>
   <path style="color:#000000;line-height:normal;font-variant-ligatures:normal;font-variant-position:normal;font-variant-caps:normal;font-variant-numeric:normal;font-variant-alternates:normal;font-feature-settings:normal;text-indent:0;text-align:start;text-decoration-line:none;text-decoration-style:solid;text-decoration-color:#000000;text-transform:none;text-orientation:mixed;shape-padding:0;isolation:auto;mix-blend-mode:normal;fill:#808080;stroke-width:0.666666" d="m 21.322266,8.3222656 c -2.088387,2.0883864 -2.088387,5.2670824 0,7.3554684 l 0.355468,-0.355468 c -1.911609,-1.91161 -1.911609,-4.732922 0,-6.6445316 z" id="path827" />
   <path style="color:#000000;line-height:normal;font-variant-ligatures:normal;font-variant-position:normal;font-variant-caps:normal;font-variant-numeric:normal;font-variant-alternates:normal;font-feature-settings:normal;text-indent:0;text-align:start;text-decoration-line:none;text-decoration-style:solid;text-decoration-color:#000000;text-transform:none;text-orientation:mixed;shape-padding:0;isolation:auto;mix-blend-mode:normal;fill:#808080;stroke-width:0.666666" d="m 18.822266,5.8222656 c -2.029461,2.029461 -3.072266,4.0969282 -3.072266,6.2402344 0,2.143306 1.038066,4.326027 3.0625,6.603516 l 0.375,-0.332032 c -1.975562,-2.222506 -2.9375,-4.289794 -2.9375,-6.271484 0,-1.98169 0.957199,-3.9142306 2.927734,-5.8847656 z" id="path825" />
   <path id="rect864" style="fill:#808080;fill-opacity:1;fill-rule:evenodd;stroke-width:0.5;stroke-linecap:round;stroke-linejoin:round" d="m 7.5,2 c -1.939,0 -3.5,1.561 -3.5,3.5 v 7 c 0,1.939 1.561,3.5 3.5,3.5 1.939,0 3.5,-1.561 3.5,-3.5 v -7 c 0,-1.939 -1.561,-3.5 -3.5,-3.5 z m 0,1 a 2.5,2.5 0 0 1 2.5,2.5 v 7 a 2.5,2.5 0 0 1 -2.5,2.5 2.5,2.5 0 0 1 -2.5,-2.5 v -7 a 2.5,2.5 0 0 1 2.5,-2.5 z m -5.5,8 v 1.5 a 5.5,5.5 0 0 0 5,5.466797 v 3.044922 c -1.744098,0.07151 -3,0.488281 -3,0.488281 v 0.5 h 7 v -0.5 c 0,0 -1.255902,-0.416771 -3,-0.488281 v -3.044922 a 5.5,5.5 0 0 0 5,-5.466797 v -1.5 h -1 v 1.5 a 4.5,4.5 0 0 1 -4,4.464844 v -0.464844 h -1 v 0.464844 a 4.5,4.5 0 0 1 -4,-4.464844 v -1.5 z" />
</svg>

<?xml version="1.0" encoding="UTF-8" standalone="no"?>
<svg
   viewBox="0 1 24 24"
   height="24"
   width="24"
   version="1.1"
   id="svg10"
   sodipodi:docname="low-filled.svg"
   inkscape:version="1.2 (1:1.2.1+202207142221+cd75a1ee6d)"
   xmlns:inkscape="http://www.inkscape.org/namespaces/inkscape"
   xmlns:sodipodi="http://sodipodi.sourceforge.net/DTD/sodipodi-0.dtd"
   xmlns="http://www.w3.org/2000/svg"
   xmlns:svg="http://www.w3.org/2000/svg">
  <defs
     id="defs14" />
  <sodipodi:namedview
     id="namedview12"
     pagecolor="#ffffff"
     bordercolor="#666666"
     borderopacity="1.0"
     inkscape:pageshadow="2"
     inkscape:pageopacity="0.0"
     inkscape:pagecheckerboard="0"
     showgrid="true"
     inkscape:zoom="28"
     inkscape:cx="4.9642857"
     inkscape:cy="7.7857143"
     inkscape:window-width="1920"
     inkscape:window-height="1043"
     inkscape:window-x="0"
     inkscape:window-y="0"
     inkscape:window-maximized="1"
     inkscape:current-layer="svg10"
     inkscape:showpageshadow="2"
     inkscape:deskcolor="#d1d1d1">
    <inkscape:grid
       type="xygrid"
       id="grid912" />
    <inkscape:grid
       type="xygrid"
       id="grid914"
       dotted="true"
       spacingx="0.5"
       spacingy="0.5"
       empspacing="10" />
  </sodipodi:namedview>
  <path
     style="color:#000000;line-height:normal;font-variant-ligatures:normal;font-variant-position:normal;font-variant-caps:normal;font-variant-numeric:normal;font-variant-alternates:normal;font-feature-settings:normal;text-indent:0;text-align:start;text-decoration-line:none;text-decoration-style:solid;text-decoration-color:#000000;text-transform:none;text-orientation:mixed;shape-padding:0;isolation:auto;mix-blend-mode:normal;fill:#808080;stroke-width:0.666666"
     d="m 21.322266,8.3222656 c -2.088387,2.0883864 -2.088387,5.2670824 0,7.3554684 l 0.355468,-0.355468 c -1.911609,-1.91161 -1.911609,-4.732922 0,-6.6445316 z"
     id="path827" />
  <path
     style="color:#000000;line-height:normal;font-variant-ligatures:normal;font-variant-position:normal;font-variant-caps:normal;font-variant-numeric:normal;font-variant-alternates:normal;font-feature-settings:normal;text-indent:0;text-align:start;text-decoration-line:none;text-decoration-style:solid;text-decoration-color:#000000;text-transform:none;text-orientation:mixed;shape-padding:0;isolation:auto;mix-blend-mode:normal;fill:#808080;stroke-width:0.666666"
     d="m 18.822266,5.8222656 c -2.029461,2.029461 -3.072266,4.0969282 -3.072266,6.2402344 0,2.143306 1.038066,4.326027 3.0625,6.603516 l 0.375,-0.332032 c -1.975562,-2.222506 -2.9375,-4.289794 -2.9375,-6.271484 0,-1.98169 0.957199,-3.9142306 2.927734,-5.8847656 z"
     id="path825" />
  <path
     id="path295"
     style="fill:#808080;fill-opacity:1;fill-rule:evenodd;stroke-width:0.5;stroke-linecap:round;stroke-linejoin:round"
     d="M 7.5 2 C 5.5610019 2 4 3.5610019 4 5.5 L 4 12.5 C 4 14.438998 5.5610019 16 7.5 16 C 9.4389981 16 11 14.438998 11 12.5 L 11 5.5 C 11 3.5610019 9.4389981 2 7.5 2 z M 2 11 L 2 12.5 A 5.5 5.5 0 0 0 7 17.966797 L 7 21.011719 C 5.2559037 21.083229 4 21.5 4 21.5 L 4 22 L 11 22 L 11 21.5 C 11 21.5 9.7440963 21.083229 8 21.011719 L 8 17.966797 A 5.5 5.5 0 0 0 13 12.5 L 13 11 L 12 11 L 12 12.5 A 4.5 4.5 0 0 1 8 16.964844 L 8 16.5 L 7 16.5 L 7 16.964844 A 4.5 4.5 0 0 1 3 12.5 L 3 11 L 2 11 z " />
</svg>
